source/img/services/services-nav/analytic-icon-active.svg

<svg width="33" height="33" viewBox="0 0 33 33" fill="none" xmlns="http://www.w3.org/2000/svg">
<g clip-path="url(#clip0)">
<path d="M20.1452 20.2408L19.0361 19.1318L20.1586 17.7873L21.0458 18.6745L21.9379 18.6696L27.4817 24.4375L25.2393 26.68L19.6955 20.9121L20.1452 20.2408Z" fill="url(#paint0_linear)"/>
<path fill-rule="evenodd" clip-rule="evenodd" d="M13.7723 6.42786C10.4117 6.46057 7.66842 9.21987 7.64494 12.5909C7.62145 15.962 10.3267 18.6683 13.6873 18.6356C17.0478 18.6029 19.7911 15.8436 19.8146 12.4725C19.8229 11.2852 19.4931 10.1815 18.9157 9.25032C18.8001 9.06402 18.8586 8.81652 19.0463 8.69751C19.234 8.5785 19.4797 8.63305 19.5953 8.81935C20.2488 9.87328 20.622 11.123 20.6126 12.4647C20.5861 16.2779 17.483 19.3991 13.6817 19.4361C9.88039 19.4731 6.82036 16.4119 6.84692 12.5987C6.87349 8.78553 9.97658 5.66435 13.7779 5.62735C15.202 5.6135 16.5231 6.03488 17.6162 6.76798C17.798 6.88989 17.8444 7.13821 17.7198 7.32263C17.5953 7.50704 17.3469 7.55771 17.1651 7.4358C16.1991 6.78796 15.0323 6.4156 13.7723 6.42786Z" fill="#0A3D76"/>
<path fill-rule="evenodd" clip-rule="evenodd" d="M13.6756 20.2377C17.9176 20.1965 21.3805 16.7135 21.4101 12.4582C21.4397 8.20289 18.0248 4.78672 13.7828 4.82796C9.54076 4.86919 6.07792 8.35221 6.04833 12.6075C6.0379 14.1061 6.45429 15.4995 7.18319 16.675C7.29871 16.8613 7.24023 17.1088 7.05257 17.2278C6.8649 17.3468 6.61912 17.2922 6.5036 17.1059C5.69856 15.8077 5.23882 14.2683 5.25031 12.6153C5.28298 7.91786 9.10559 4.07297 13.7884 4.02745C18.4711 3.98193 22.2407 7.75303 22.2081 12.4504C22.1754 17.1478 18.3528 20.9927 13.67 21.0382C11.9156 21.0553 10.2883 20.5362 8.94166 19.6331C8.75988 19.5112 8.7135 19.2629 8.83807 19.0785C8.96265 18.8941 9.211 18.8434 9.39278 18.9653C10.6122 19.7831 12.0852 20.2532 13.6756 20.2377Z" fill="#0A3D76"/>
<path fill-rule="evenodd" clip-rule="evenodd" d="M20.1033 17.2851L21.2885 18.474L21.5852 18.429C22.0209 18.3629 22.4589 18.506 22.7672 18.8153L27.3836 23.4462C27.6918 23.7554 27.8345 24.1946 27.7687 24.6316L27.7438 24.7969C27.6986 25.0973 27.5577 25.3766 27.3422 25.5927L26.5362 26.4013C26.3207 26.6174 26.0424 26.7587 25.7429 26.8041L25.5781 26.8291C25.1425 26.8951 24.7047 26.7519 24.3964 26.4427L19.78 21.8117C19.4717 21.5025 19.3291 21.0634 19.3948 20.6263L19.4396 20.3288L18.2543 19.1403L20.1033 17.2851ZM20.2386 20.3693L20.1839 20.7329C20.1557 20.9202 20.2168 21.1084 20.3489 21.241L24.9654 25.872C25.0975 26.0045 25.2851 26.0658 25.4718 26.0375L25.6366 26.0126C25.765 25.9931 25.8843 25.9326 25.9766 25.8399L26.7826 25.0313C26.875 24.9387 26.9354 24.819 26.9547 24.6903L26.9796 24.525C27.0078 24.3377 26.9467 24.1495 26.8146 24.017L22.1982 19.3861C22.0661 19.2535 21.8784 19.1922 21.6916 19.2205L21.3289 19.2756L20.2386 20.3693ZM20.5796 18.9045L20.0939 18.4173L19.3829 19.1307L19.8687 19.6178L20.5796 18.9045Z" fill="#0A3D76"/>
<path d="M11.9662 12.615C11.6289 12.7987 11.333 12.615 11.333 13.3515V15.1476L11.9662 15.7807L12.5993 15.1476V13.4549C12.482 13.0327 12.335 12.855 11.9662 12.615Z" fill="url(#paint1_linear)"/>
<path d="M13.549 12.2989L13.2324 12.764V15.4646L13.5404 15.7812H13.8656L14.4987 15.1481L14.4687 12.8739C14.5221 12.748 14.365 12.3688 14.1821 12.2989C13.9684 12.0512 13.8225 12.1067 13.549 12.2989Z" fill="url(#paint2_linear)"/>
<path d="M15.7651 10.7173L15.159 11.1807L15.1318 15.1493L15.7651 15.7825L16.3981 15.1493L16.3982 11.1807L16.0816 11.0338L15.7651 10.7173Z" fill="url(#paint3_linear)"/>
<path fill-rule="evenodd" clip-rule="evenodd" d="M16.0938 8.8204C16.1394 8.8312 16.1779 8.86173 16.1988 8.90376L16.3815 9.27029C16.4205 9.34857 16.3889 9.44376 16.3109 9.4829C16.2329 9.52198 16.1382 9.4904 16.0991 9.41236C15.728 10.5255 14.953 11.2833 14.1149 11.7798C13.1821 12.3324 12.1622 12.5674 11.5022 12.6146C11.4152 12.6209 11.3396 12.5552 11.3334 12.4679C11.3272 12.3806 11.3927 12.3047 11.4797 12.2985C12.0984 12.2542 13.0696 12.031 13.9542 11.5069C14.725 11.0503 15.4234 10.37 15.7742 9.38498C15.7056 9.42693 15.6151 9.41045 15.5659 9.34461C15.5135 9.27459 15.5277 9.17526 15.5974 9.12275L15.9628 8.84786C16.0002 8.81966 16.0483 8.80961 16.0938 8.8204Z" fill="#0A3D76"/>
<path fill-rule="evenodd" clip-rule="evenodd" d="M15.1318 11.2204C15.1318 10.9416 15.3472 10.7156 15.6128 10.7156H15.9172C16.1828 10.7156 16.3981 10.9416 16.3981 11.2204V13.1611C16.3981 13.2371 16.3394 13.2988 16.267 13.2988C16.1945 13.2988 16.1358 13.2371 16.1358 13.1611V11.2204C16.1358 11.0937 16.0379 10.9909 15.9172 10.9909H15.6128C15.4921 10.9909 15.3942 11.0937 15.3942 11.2204V15.2759C15.3942 15.4027 15.4921 15.5054 15.6128 15.5054H15.9172C16.0379 15.5054 16.1358 15.4027 16.1358 15.2759V13.6401C16.1358 13.564 16.1945 13.5024 16.267 13.5024C16.3394 13.5024 16.3981 13.564 16.3981 13.6401V15.2759C16.3981 15.5547 16.1828 15.7808 15.9172 15.7808H15.6128C15.3472 15.7808 15.1318 15.5547 15.1318 15.2759V11.2204Z" fill="#0A3D76"/>
<path fill-rule="evenodd" clip-rule="evenodd" d="M13.2324 12.5115C13.2324 12.2196 13.4478 11.9829 13.7134 11.9829H14.0178C14.2834 11.9829 14.4987 12.2196 14.4987 12.5115V15.2532C14.4987 15.5452 14.2834 15.7818 14.0178 15.7818H13.6442C13.4168 15.7818 13.2324 15.5792 13.2324 15.3293C13.2324 15.2497 13.2912 15.1851 13.3636 15.1851C13.436 15.1851 13.4948 15.2497 13.4948 15.3293C13.4948 15.42 13.5617 15.4935 13.6442 15.4935H14.0178C14.1385 15.4935 14.2364 15.3859 14.2364 15.2532V12.5115C14.2364 12.3788 14.1385 12.2712 14.0178 12.2712H13.7134C13.5926 12.2712 13.4948 12.3788 13.4948 12.5115V15.0209C13.4948 15.1005 13.436 15.1651 13.3636 15.1651C13.2912 15.1651 13.2324 15.1005 13.2324 15.0209V12.5115Z" fill="#0A3D76"/>
<path fill-rule="evenodd" clip-rule="evenodd" d="M11.333 13.1178C11.333 12.8401 11.5399 12.615 11.795 12.615H12.1183C12.384 12.615 12.5993 12.8493 12.5993 13.1384V15.2573C12.5993 15.5464 12.384 15.7807 12.1183 15.7807H11.814C11.5483 15.7807 11.333 15.5464 11.333 15.2573V13.4778C11.333 13.399 11.3917 13.3351 11.4642 13.3351C11.5366 13.3351 11.5954 13.399 11.5954 13.4778V15.2573C11.5954 15.3887 11.6932 15.4952 11.814 15.4952H12.1183C12.2391 15.4952 12.337 15.3887 12.337 15.2573V13.1384C12.337 13.007 12.2391 12.9005 12.1183 12.9005H11.795C11.6848 12.9005 11.5954 12.9978 11.5954 13.1178C11.5954 13.1966 11.5366 13.2605 11.4642 13.2605C11.3917 13.2605 11.333 13.1966 11.333 13.1178Z" fill="#0A3D76"/>
</g>
<defs>
<linearGradient id="paint0_linear" x1="27.2327" y1="22.2087" x2="19.2726" y2="22.0029" gradientUnits="userSpaceOnUse">
<stop stop-color="#A62E41"/>
<stop offset="1" stop-color="#E13152"/>
</linearGradient>
<linearGradient id="paint1_linear" x1="12.5603" y1="14.1979" x2="11.37" y2="14.1876" gradientUnits="userSpaceOnUse">
<stop stop-color="#A62E41"/>
<stop offset="1" stop-color="#E13152"/>
</linearGradient>
<linearGradient id="paint2_linear" x1="14.4597" y1="13.9573" x2="13.2694" y2="13.9484" gradientUnits="userSpaceOnUse">
<stop stop-color="#A62E41"/>
<stop offset="1" stop-color="#E13152"/>
</linearGradient>
<linearGradient id="paint3_linear" x1="16.3592" y1="13.2499" x2="15.1688" y2="13.2435" gradientUnits="userSpaceOnUse">
<stop stop-color="#A62E41"/>
<stop offset="1" stop-color="#E13152"/>
</linearGradient>
<clipPath id="clip0">
<rect width="32" height="32" fill="white" transform="translate(0.595703 0.982178)"/>
</clipPath>
</defs>
</svg>

<svg width="33" height="33" fill="none" xmlns="http://www.w3.org/2000/svg"><g clip-path="url(#clip0)"><path d="M20.145 20.24l-1.109-1.108 1.123-1.345.887.887.892-.004 5.544 5.767-2.243 2.243-5.544-5.768.45-.671z" fill="url(#paint0_linear)"/><path fill-rule="evenodd" clip-rule="evenodd" d="M13.772 6.428c-3.36.033-6.104 2.792-6.127 6.163a5.973 5.973 0 006.042 6.045c3.36-.033 6.104-2.792 6.128-6.163a6.01 6.01 0 00-.9-3.223.404.404 0 01.131-.552.395.395 0 01.55.121 6.801 6.801 0 011.017 3.646c-.027 3.813-3.13 6.934-6.931 6.971A6.756 6.756 0 016.847 12.6c.026-3.813 3.13-6.935 6.93-6.972a6.745 6.745 0 013.84 1.141.4.4 0 01.103.555.401.401 0 01-.555.113 5.96 5.96 0 00-3.393-1.008z" fill="#0A3D76"/><path fill-rule="evenodd" clip-rule="evenodd" d="M13.676 20.238c4.242-.041 7.705-3.524 7.734-7.78a7.54 7.54 0 00-7.627-7.63c-4.242.041-7.705 3.524-7.735 7.78a7.587 7.587 0 001.135 4.067.405.405 0 01-.13.553.395.395 0 01-.55-.122 8.378 8.378 0 01-1.253-4.49c.033-4.698 3.856-8.543 8.538-8.589a8.323 8.323 0 018.42 8.423c-.033 4.698-3.855 8.543-8.538 8.588a8.31 8.31 0 01-4.728-1.405.398.398 0 01-.104-.555.401.401 0 01.555-.113 7.524 7.524 0 004.283 1.273z" fill="#0A3D76"/><path fill-rule="evenodd" clip-rule="evenodd" d="M20.103 17.285l1.185 1.189.297-.045c.436-.066.874.077 1.182.386l4.617 4.631c.308.31.45.749.385 1.186l-.025.165c-.045.3-.186.58-.402.796l-.806.808a1.423 1.423 0 01-.793.403l-.165.025a1.375 1.375 0 01-1.182-.386l-4.616-4.631a1.384 1.384 0 01-.385-1.186l.045-.297-1.186-1.189 1.85-1.855zm.136 3.084l-.055.364a.593.593 0 00.165.508l4.616 4.631a.59.59 0 00.507.166l.165-.025a.61.61 0 00.34-.173l.806-.809a.612.612 0 00.172-.34l.025-.166a.593.593 0 00-.165-.508l-4.617-4.63a.59.59 0 00-.506-.166l-.363.055-1.09 1.093zm.34-1.465l-.485-.487-.711.714.486.487.71-.713z" fill="#0A3D76"/><path d="M11.966 12.615c-.337.184-.633 0-.633.736v1.797l.633.633.633-.633v-1.693c-.117-.422-.264-.6-.633-.84z" fill="url(#paint1_linear)"/><path d="M13.549 12.299l-.317.465v2.7l.308.317h.326l.633-.633-.03-2.274c.053-.126-.104-.505-.287-.575-.214-.248-.36-.192-.633 0z" fill="url(#paint2_linear)"/><path d="M15.765 10.717l-.606.464-.027 3.968.633.634.633-.634v-3.968l-.316-.147-.317-.317z" fill="url(#paint3_linear)"/><path fill-rule="evenodd" clip-rule="evenodd" d="M16.094 8.82a.161.161 0 01.105.084l.182.366a.158.158 0 11-.282.142c-.371 1.113-1.146 1.871-1.984 2.368a6.29 6.29 0 01-2.613.835.158.158 0 01-.023-.316 5.977 5.977 0 002.475-.792c.771-.457 1.47-1.137 1.82-2.122a.158.158 0 01-.208-.04.159.159 0 01.031-.222l.366-.275a.157.157 0 01.13-.028z" fill="#0A3D76"/><path fill-rule="evenodd" clip-rule="evenodd" d="M15.132 11.22c0-.278.215-.504.48-.504h.305c.266 0 .481.226.481.504v1.941a.135.135 0 01-.131.138.135.135 0 01-.131-.138v-1.94a.224.224 0 00-.219-.23h-.304a.224.224 0 00-.219.23v4.055c0 .127.098.23.219.23h.304c.12 0 .219-.103.219-.23V13.64c0-.076.059-.138.131-.138.072 0 .131.062.131.138v1.636a.493.493 0 01-.48.505h-.305a.493.493 0 01-.481-.505V11.22zm-1.9 1.291c0-.291.216-.528.481-.528h.305c.265 0 .48.237.48.528v2.742c0 .292-.215.529-.48.529h-.374c-.227 0-.412-.203-.412-.453 0-.08.06-.144.132-.144.072 0 .13.065.13.144 0 .091.068.164.15.164h.374c.12 0 .218-.107.218-.24v-2.742c0-.132-.098-.24-.218-.24h-.305c-.12 0-.218.108-.218.24v2.51c0 .08-.059.144-.131.144-.073 0-.132-.064-.132-.144v-2.51zm-1.899.607c0-.278.207-.503.462-.503h.323c.266 0 .481.234.481.523v2.12c0 .288-.215.523-.48.523h-.305c-.266 0-.481-.235-.481-.524v-1.78c0-.078.059-.142.131-.142.073 0 .131.064.131.143v1.78c0 .13.098.237.219.237h.304c.121 0 .219-.106.219-.238v-2.119c0-.131-.098-.238-.219-.238h-.323c-.11 0-.2.098-.2.218 0 .079-.058.143-.13.143-.073 0-.132-.064-.132-.143z" fill="#0A3D76"/></g><defs><linearGradient id="paint0_linear" x1="27.233" y1="22.209" x2="19.273" y2="22.003" gradientUnits="userSpaceOnUse"><stop stop-color="#A62E41"/><stop offset="1" stop-color="#E13152"/></linearGradient><linearGradient id="paint1_linear" x1="12.56" y1="14.198" x2="11.37" y2="14.188" gradientUnits="userSpaceOnUse"><stop stop-color="#A62E41"/><stop offset="1" stop-color="#E13152"/></linearGradient><linearGradient id="paint2_linear" x1="14.46" y1="13.957" x2="13.269" y2="13.948" gradientUnits="userSpaceOnUse"><stop stop-color="#A62E41"/><stop offset="1" stop-color="#E13152"/></linearGradient><linearGradient id="paint3_linear" x1="16.359" y1="13.25" x2="15.169" y2="13.243" gradientUnits="userSpaceOnUse"><stop stop-color="#A62E41"/><stop offset="1" stop-color="#E13152"/></linearGradient><clipPath id="clip0"><path fill="#fff" transform="translate(.596 .982)" d="M0 0h32v32H0z"/></clipPath></defs></svg>
